icon_installer/data/icons/scalable/actions/show-container-terminal-symbolic.svg

<?xml version="1.0" encoding="UTF-8"?>
<svg height="16px" viewBox="0 0 16 16" width="16px" xmlns="http://www.w3.org/2000/svg">
    <g fill="#222222">
        <path d="m 15 1 v 1 h -1 v -1 z m 0 1 h 1 v 1 h -1 z m -2 -1 v 1 h -1 v -1 z m -2 0 v 1 h -1 v -1 z m -2 0 v 1 h -1 v -1 z m -2 0 v 1 h -1 v -1 z m -2 0 v 1 h -1 v -1 z m -2 0 v 1 h -1 v -1 z m -2 0 v 1 h -1 v -0.5 c 0 -0.277344 0.222656 -0.5 0.5 -0.5 z m 0 2 v 1 h -1 v -1 z m 15 1 v 1 h -1 v -1 z m -15 1 v 1 h -1 v -1 z m 15 1 v 1 h -1 v -1 z m -15 1 v 1 h -1 v -1 z m 15 1 v 1 h -1 v -1 z m -15 1 v 1 h -1 v -1 z m 15 1 v 1 h -1 v -1 z m -15 1 v 1 h -1 v -1 z m 15 1 v 1 h -1 v -1 z m -15 1 v 1 h -1 v -1 z m 0 1 h 1 v 1 h -1 z m 15 0 v 0.5 c 0 0.277344 -0.222656 0.5 -0.5 0.5 h -0.5 v -1 z m -2 0 v 1 h -1 v -1 z m -2 0 v 1 h -1 v -1 z m -2 0 v 1 h -1 v -1 z m -2 0 v 1 h -1 v -1 z m -2 0 v 1 h -1 v -1 z m -2 0 v 1 h -1 v -1 z m 0 0"/>
        <path d="m 3 3 c -0.554688 0 -1 0.445312 -1 1 v 8 c 0 0.554688 0.445312 1 1 1 h 10 c 0.554688 0 1 -0.445312 1 -1 v -8 c 0 -0.554688 -0.445312 -1 -1 -1 z m 0 2 h 10 v 7 h -10 z m 0 0"/>
        <path d="m 4.492188 5.992188 c -0.203126 0.003906 -0.386719 0.125 -0.460938 0.316406 c -0.078125 0.1875 -0.03125 0.402344 0.113281 0.546875 l 1.648438 1.644531 l -1.648438 1.644531 c -0.128906 0.128907 -0.179687 0.3125 -0.136719 0.488281 c 0.046876 0.175782 0.183594 0.3125 0.359376 0.359376 c 0.175781 0.042968 0.359374 -0.007813 0.488281 -0.136719 l 2 -2 c 0.191406 -0.195313 0.191406 -0.515625 0 -0.710938 l -2 -2 c -0.097657 -0.09375 -0.226563 -0.152343 -0.363281 -0.152343 z m 0 0"/>
    </g>
</svg>

<svg xmlns="http://www.w3.org/2000/svg" width="16" height="16"><g fill="#222"><path d="M15 1v1h-1V1zm0 1h1v1h-1zm-2-1v1h-1V1zm-2 0v1h-1V1zM9 1v1H8V1zM7 1v1H6V1zM5 1v1H4V1zM3 1v1H2V1zM1 1v1H0v-.5c0-.277.223-.5.5-.5zm0 2v1H0V3zm15 1v1h-1V4zM1 5v1H0V5zm15 1v1h-1V6zM1 7v1H0V7zm15 1v1h-1V8zM1 9v1H0V9zm15 1v1h-1v-1zM1 11v1H0v-1zm15 1v1h-1v-1zM1 13v1H0v-1zm0 1h1v1H1zm15 0v.5c0 .277-.223.5-.5.5H15v-1zm-2 0v1h-1v-1zm-2 0v1h-1v-1zm-2 0v1H9v-1zm-2 0v1H7v-1zm-2 0v1H5v-1zm-2 0v1H3v-1zM3 3c-.555 0-1 .445-1 1v8c0 .555.445 1 1 1h10c.555 0 1-.445 1-1V4c0-.555-.445-1-1-1zm0 2h10v7H3zm0 0"/><path d="M4.492 5.992a.5.5 0 0 0-.46.317.501.501 0 0 0 .113.546L5.793 8.5l-1.648 1.645a.514.514 0 0 0-.137.488.506.506 0 0 0 .36.36.514.514 0 0 0 .487-.138l2-2a.512.512 0 0 0 0-.71l-2-2a.528.528 0 0 0-.363-.153zm0 0"/></g></svg>
